!!!!SEGMENT: pl-wtm--r-1654_stefani-jozef--przyjdzie-czas.krn
!!!cenid: 18xx:2048
!!!COM: Stefani, Józef
!!!COM-rismid: pe30024097
!!!CDT: 1800/04/16-1876/03/19
!!!CNT: Polish
!!!OTL: Przyjdzie czas
!!!PDT:
!!!AGN: Secular
!!!SMS-siglum: PL-Wtm
!!!SMS-shelfmark: R 1654
!!!SMS-shelfwork: W
!!!SMS-variant:
!!!SMS-altvar:
!!!NIFC-rismid: 1001114896
!!!URL-scan: http://repozytorium.nifc.pl/skany/pl-wtm-nut--r1652--r1653--r1654--r1655--r1656--r1657--r1658--r1659--r1660--r1661
!!!ONB-nifc: UWAGA: No. 11, skan 0004-0005
!!!OMD: No. 11. Allegro moderato.
!!!key:
**kern	**kern	**dynam	**kern	**text	**dynam
*part3	*part2	*part2	*part1	*part1	*part1
*staff3	*staff2	*	*staff1	*staff1	*
*Iforte	*Iforte	*	*Iempty	*	*
*I"Fortepian	*I"Fortepian	*	*I"Dwuśpiew	*	*
*clefF4	*clefG2	*	*clefG2	*	*
*k[b-e-]	*k[b-e-]	*	*k[b-e-]	*	*
*B-:	*B-:	*	*B-:	*	*
*M2/4	*M2/4	*	*M2/4	*	*
*>[A,B,B,C,D,D,E]	*>[A,B,B,C,D,D,E]	*>[A,B,B,C,D,D,E]	*>[A,B,B,C,D,D,E]	*>[A,B,B,C,D,D,E]	*>[A,B,B,C,D,D,E]
=1	=1	=1	=1	=1	=1
*>A	*>A	*>A	*>A	*>A	*>A
!	!	!	!LO:TX:a:t=Przyidzie czas, \nWiersz Jana Kontrymowicza	!	!
8r	8r	.	2r	.	.
!LO:N:vis=16	!	!	!	!	!
8F\L	8f/L	.	.	.	.
16en\L	16g/L	.	.	.	.
16e-X\	16a/	.	.	.	.
16d\	16b-/	.	.	.	.
16A\JJ	16cc/JJ	.	.	.	.
=2	=2	=2	=2	=2	=2
!LO:TX:t=P:problem=mixed beam	!	!LO:DY:rj	!	!	!LO:DY:rj
16BB-/LL	4dd 4b-\	f	4dd 4b-\	Patrz	f
16B-\	.	.	.	.	.
16BB-/	.	.	.	.	.
16B-\JJ	.	.	.	.	.
16F#X\LL	16ccLL 16a/	.	16cc 16a\	wi-	.
16G\	16b- 16g/	.	16b- 16g/	-no-	.
16D\	16a 16f/	.	16a 16f/	-grad	.
16E-\JJ	16gJJ 16e-/	.	16g 16e-/	źie-	.
=3	=3	=3	=3	=3	=3
!LO:TX:t=P:problem=mixed beam	!	!	!	!	!
16BB-/LL	4f 4d/	.	4f 4d/	-lo-	.
16B-\	.	.	.	.	.
16BB-/	.	.	.	.	.
16B-\JJ	.	.	.	.	.
8BB-/	8d 8B-/	.	8d 8B-/	-ny,	.
8BB-/	8d 8B-/	.	8r	.	.
!!LO:LB:g=original
=4	=4	=4	=4	=4	=4
*^	*	*	*	*	*
16FF\LL	4FF/	8.e-L 8.c/	.	8.e- 8.c/	jesz-	.
16F\	.	.	.	.	.	.
16C\	.	.	.	.	.	.
16F\JJ	.	16fJk 16d/	.	16f 16d/	-cze	.
*rep	*rep	*	*	*	*	*
16FF\LL	4FF/	8gL 8e-/	.	8g 8e-/	nie-	.
16F\	.	.	.	.	.	.
16C\	.	8aJ 8c/	.	8a 8c/	-do-	.
16F\JJ	.	.	.	.	.	.
*Xrep	*Xrep	*	*	*	*	*
=5	=5	=5	=5	=5	=5	=5
16BB-\LL	4BB-/	4b- 4d/	.	4b- 4d/	-sta-	.
16F\	.	.	.	.	.	.
16D\	.	.	.	.	.	.
16F\JJ	.	.	.	.	.	.
*rep	*rep	*	*	*	*	*
16BB-\LL	4BB-/	4f 4d/	.	8f 8d/	-ły;	.
16F\	.	.	.	.	.	.
16D\	.	.	.	8r	.	.
16F\JJ	.	.	.	.	.	.
*Xrep	*Xrep	*	*	*	*	*
=6	=6	=6	=6	=6	=6	=6
16BB-\LL	4BB-/	4b- 4d/	.	4b- 4d/	Błysz-	.
16F\	.	.	.	.	.	.
16D\	.	.	.	.	.	.
16F\JJ	.	.	.	.	.	.
16BB-\LL	4BB-/	16gLL 16e-/	.	16g 16e-/	-czy	.
16G\	.	16g 16e-/	.	16g 16e-/	w ko-	.
16E-\	.	16g 16e-/	.	16g 16e-/	-ro-	.
16F\JJ	.	16aJJ 16c/	.	16a 16c/	-nie	.
=7	=7	=7	=7	=7	=7	=7
16BB-\LL	4BB-/	4b- 4d/	.	4b- 4d/	liś-	.
16F\	.	.	.	.	.	.
16D\	.	.	.	.	.	.
16F\JJ	.	.	.	.	.	.
8BB-/	4ryy	8f 8d/	.	8f 8d/	-ci,	.
(16E-/LL	.	8g 8e-/	.	8g 8e-/	Jak	.
16EE-/JJ)	.	.	.	.	.	.
*v	*v	*	*	*	*	*
!!LO:LB:g=original
=8	=8	=8	=8	=8	=8
!LO:TX:t=P:problem=mixed beam	!	!	!	!	!
16FF/LL	16enLL 16c#X/	.	16en 16c#X/	bry-	.
16F\	16fJJ 16d/	.	16f 16d/	-lant	.
16FF/	8dd 8f/	.	8dd 8f/	bry-	.
16F\JJ	.	.	.	.	.
*rep	*	*	*	*	*
!LO:TX:t=P:problem=mixed beam	!	!	!	!	!
16FF/LL	8.ccL 8.e/	.	8.cc 8.e/	-lant	.
16F\	.	.	.	.	.
16FF/	.	.	.	.	.
16F\JJ	16aJk 16cn/	.	16an 16cn/	wspa-	.
*Xrep	*	*	*	*	*
=9	=9	=9	=9	=9	=9
!LO:TX:t=P:problem=mixed beam	!	!	!	!	!
16FF'</LL	4cc 4e-/	.	4cc 4e-/	-nia-	.
(16F\	.	.	.	.	.
16G\	.	.	.	.	.
16A\JJ	.	.	.	.	.
8B-\)	8b- 8d/	.	8b- 8d/	-ły;	.
8r	8r	.	8r	.	.
=10!|:	=10!|:	=10!|:	=10!|:	=10!|:	=10!|:
*>B	*>B	*>B	*>B	*>B	*>B
!	!	!LO:DY:rj	!	!	!LO:DY:rj
(16FF\LL	8aL 8f'/	p	8a 8f/	Przyj-	p
16F\	.	.	.	.	.
16C\	(16g#XL 16en/	.	16g#XLL 16en/	-dzie	.
16F\JJ	16aJJ 16f/)	.	16aJJ 16f/	.	<
*rep	*	*	*	*	*
16FF\LL	8aL 8f'/	.	8a 8f/	po-	.
16F\	.	.	.	.	.
16C\	(16g#L 16e/	.	16g# 16e/	-ra	.
16F\JJ)	16aJJ 16f/)	.	16a 16f/	wio-	[[
*Xrep	*	*	*	*	*
!!LO:LB:g=original
=11	=11	=11	=11	=11	=11
(16FF\LL	(>4cc 4a/	.	4cc 4a\	-sen-	.
16F\	.	.	.	.	.
16C\	.	.	.	.	.
16F\JJ	.	.	.	.	.
*rep	*	*	*	*	*
16FF\LL	8a 8f/)	.	8a 8f/	-na,	.
16F\	.	.	.	.	.
16C\	8r	.	8r	.	.
16F\JJ)	.	.	.	.	.
*Xrep	*	*	*	*	*
=12	=12	=12	=12	=12	=12
(16C\LL	8.b-L 8.g/	.	8.b- 8.g/	Cie-	.
16c\	.	.	.	.	.
16G\	.	.	.	.	.
16c\JJ	16aJk 16f#X/	.	16a 16f#X/	-płem	.
*rep	*	*	*	*	*
16C\LL	8b-L 8g/	.	8b- 8g/	o-	.
16c\	.	.	.	.	.
16G\	8ccJ 8en/	.	8cc 8en/	-zło-	.
16c\JJ)	.	.	.	.	.
*Xrep	*	*	*	*	*
=13	=13	=13	=13	=13	=13
*^	*	*	*	*	*
16F\LL	4F/	4a 4f/	.	4a 4f/	-co-	.
16c\	.	.	.	.	.	.
16A\	.	.	.	.	.	.
16c\JJ	.	.	.	.	.	.
16C\LL	4ryy	8g 8en/	.	8g 8en/	-na,	.
16G\	.	.	.	.	.	.
16En\	.	8r	.	8r	.	.
16C\JJ	.	.	.	.	.	.
=14	=14	=14	=14	=14	=14	=14
16FF\LL	4FF/	8aL 8f'/	.	8a 8f/	W słod-	.
16F\	.	.	.	.	.	.
16C\	.	(16g#XL 16en/	.	16g#XLL 16en/	-kie	.
16F\JJ	.	16aJJ 16f/)	.	16aJJ 16f/	.	.
*rep	*rep	*	*	*	*	*
16FF\LL	4FF/	8aL 8f'/	.	8a 8f/	so-	.
16F\	.	.	.	.	.	.
16C\	.	(16g#L 16e/	.	16g# 16e/	-ki	.
16F\JJ	.	16aJJ 16f/)	.	16a 16f/	doj-	.
*Xrep	*Xrep	*	*	*	*	*
!!LO:PB:g=original
=15	=15	=15	=15	=15	=15	=15
4FF/	16FF\LL	4cc 4a\	.	4cc 4a\	-rze-	.
.	16F\	.	.	.	.	.
.	16C\	.	.	.	.	.
.	16F\JJ	.	.	.	.	.
8FF/	4ryy	8a 8f/	.	8a 8f/	-ią	.
8r	.	8r	.	8r	.	.
*v	*v	*	*	*	*	*
=16	=16	=16	=16	=16	=16
8B-L 8BB-'\	8b-/L	.	8b-/	te	.
8G 8GG'\	8g/	.	8g/	źie-	.
8F 8FF'\	8f/	.	8f/	-lo-	.
8EnJ 8EEn'\	8en/J	.	8en/	-ne	.
=17	=17	=17	=17	=17	=17
!LO:S:s=2:note:problem=note-level slur	!	!	!	!	!
(>4B- (>4G (<4C\	4g 4en 4c/	.	4g 4en/	gro-	.
16ALL) 16F\)))	8f 8c/	.	8f/	-na	.
16E-X'\	.	.	.	.	.
16D'\	8r	.	8r	.	.
16C'\JJ	.	.	.	.	.
=18	=18	=18	=18	=18	=18
!LO:TX:t=P:problem=mixed beam	!	!LO:DY:rj	!	!	!LO:DY:rj
16BB-/LL	4dd 4b-\	f	4dd 4b-\	A	f
16B-\	.	.	.	.	.
16BB-/	.	.	.	.	.
16B-\JJ	.	.	.	.	.
(16F#X\LL	(16ccLL 16a/	.	(16ccLL 16a/	cien-	.
16G\)	16b-JJ 16g/)	.	16b-JJ 16g/)	.	.
16D'\	16aLL 16f'/	.	16a 16f/	-kie	.
16E-'\JJ	16gJJ 16e-'/	.	16g 16e-/	ga-	.
!!LO:LB:g=original
=19	=19	=19	=19	=19	=19
!LO:TX:t=P:problem=mixed beam	!	!	!	!	!
16BB-/LL	(>4f 4d/	.	(>4f 4d/	-łę-	.
16B-\	.	.	.	.	.
16BB-/	.	.	.	.	.
16B-\JJ	.	.	.	.	.
8BB-/	8d 8B-/)	.	8d 8B-/)	-źie,	.
8BB-/	8d 8B-'/	.	8d 8B-/	o-	.
=20	=20	=20	=20	=20	=20
*^	*	*	*	*	*
(16FF\LL	4FF/	8.e-L 8.c/	.	8.e- 8.c/	-kry-	.
16F\	.	.	.	.	.	.
16C\	.	.	.	.	.	.
16F\JJ	.	16fJk 16d/	.	16f 16d/	-te	.
*rep	*rep	*	*	*	*	*
16FF\LL	4FF/	8gL 8e-/	.	8g 8e-/	o-	.
16F\	.	.	.	.	.	.
16C\	.	8aJ 8c/	.	8a 8c/	-wo-	.
16F\JJ)	.	.	.	.	.	.
*Xrep	*Xrep	*	*	*	*	*
=21	=21	=21	=21	=21	=21	=21
(16BB-\LL	4BB-/	(>4b- 4d/	.	4b- 4d/	-ca-	.
16F\	.	.	.	.	.	.
16D\	.	.	.	.	.	.
16F\JJ	.	.	.	.	.	.
*rep	*rep	*	*	*	*	*
16BB-\LL	4BB-/	8fL 8d/)	.	8f 8d/	-mi	.
16F\	.	.	.	.	.	.
16D\	.	8fJ 8d'/	.	8r	.	.
16F\JJ)	.	.	.	.	.	.
*Xrep	*Xrep	*	*	*	*	*
*v	*v	*	*	*	*	*
=22	=22	=22	=22	=22	=22
!LO:TX:t=P:problem=mixed beam	!	!	!	!	!
16BB-/LL	4dd 4b-\	.	4dd 4b-\	U-	.
16B-\	.	.	.	.	.
16BB-/	.	.	.	.	.
16B-\JJ	.	.	.	.	.
(16F#X\LL	(16ccLL 16a/	.	16ccLL 16a/	-gno	.
16G\JJ)	16b-JJ 16g/)	.	16b-JJ 16g/	.	.
16D'\LL	16aLL 16f#X'/	.	16a 16f#X/	się	.
16G'\JJ	16b-JJ 16g'/	.	16b- 16g/	po-	.
!!LO:LB:g=original
=23	=23	=23	=23	=23	=23
*	*^	*	*	*	*
(4E-\	4g 4e-/	4.ryy	.	4g 4e-/	-ma-	.
8C\)	8cc 8e-/	.	.	8ee- 8g/	-łu	.
(16C\LL	16ee-/LL	8g\	.	16ee-LL 16c/	nad	.
16E-\JJ)	16cc/JJ	.	.	16ccJJ 16e-/	.	.
*	*v	*v	*	*	*	*
=24	=24	=24	=24	=24	=24
!LO:TX:t=P:problem=mixed beam	!	!	!	!	!
16FF/LL	8b-L 8d/	.	8b- 8d/	śpią-	.
16F\	.	.	.	.	.
16FF/	8fJ 8d/	.	8f 8d/	-ce-	.
16F\JJ	.	.	.	.	.
*rep	*	*	*	*	*
!LO:TX:t=P:problem=mixed beam	!	!	!	!	!
16FF/LL	8.gL 8.e-/	.	8.g 8.e-/	-mi	.
16F\	.	.	.	.	.
16FF/	.	.	.	.	.
16F\JJ	16aJk 16c/	.	16a 16c/	wo-	.
*Xrep	*	*	*	*	*
=25	=25	=25	=25	=25	=25
16FF'\LL	4cc 4e-/	.	4cc 4e-/	-da-	.
(16F\	.	.	.	.	.
16G\	.	.	.	.	.
16A\JJ	.	.	.	.	.
8B-\)	8b- 8d/	.	8b- 8d/	-mi,	.
!LO:TX:a:t=V&colon; S&colon;	!	!	!	!	!
8r	8r	.	8r	.	.
!!LO:PB:g=original
=26:|!	=26:|!	=26:|!	=26:|!	=26:|!	=26:|!
*>C	*>C	*>C	*>C	*>C	*>C
!LO:TX:t=P:problem=mixed beam	!	!	!	!	!LO:DY:rj
16BB-/LL	4dd 4b-\	.	4dd 4b-\	O-	f
16B-\	.	.	.	.	.
16BB-/	.	.	.	.	.
16B-\JJ	.	.	.	.	.
16F#X\LL	16ccLL 16a/	.	16cc 16a/	-na	.
16G\	16b- 16g/	.	16b- 16g/	iest	.
16D\	16a 16f/	.	16a 16f/	iesz-	.
16E-\JJ	16gJJ 16e-/	.	16g 16e-/	-cze	.
=27	=27	=27	=27	=27	=27
!LO:TX:t=P:problem=mixed beam	!	!	!	!	!
16BB-/LL	(4f 4d/	.	4f 4d/	dzie-	.
16B-\	.	.	.	.	.
16BB-/	.	.	.	.	.
16B-\JJ	.	.	.	.	.
8BB-/L	8dL 8B-/)	.	4d 4B-/	-ckiem	.
8BB-/J	8dJ 8B-'/	.	.	.	.
=28	=28	=28	=28	=28	=28
*^	*	*	*	*	*
16FF\LL	4FF/	8.e-L 8.c/	.	8.e- 8.c/	pta-	.
16F\	.	.	.	.	.	.
16C\	.	.	.	.	.	.
16F\JJ	.	16fJk 16d/	.	16f 16d/	-szek	.
*rep	*rep	*	*	*	*	*
16FF\LL	4FF/	8gL 8e-/	.	8g 8e-/	na	.
16F\	.	.	.	.	.	.
16C\	.	8aJ 8c/	.	8a 8c/	za-	.
16F\JJ	.	.	.	.	.	.
*Xrep	*Xrep	*	*	*	*	*
=29	=29	=29	=29	=29	=29	=29
16BB-\LL	4BB-/	(>4b- 4d/	.	4b- 4d/	-go-	.
16F\	.	.	.	.	.	.
16D\	.	.	.	.	.	.
16F\JJ	.	.	.	.	.	.
*rep	*rep	*	*	*	*	*
16BB-\LL	4BB-/	8f 8d/)	.	8f 8d/	-nie	.
16F\	.	.	.	.	.	.
16D\	.	8f 8d/	.	8f 8d/	Po	.
16F\JJ	.	.	.	.	.	.
*Xrep	*Xrep	*	*	*	*	*
!!LO:LB:g=original
=30	=30	=30	=30	=30	=30	=30
16BB-\LL	4BB-/	4b- 4d/	.	4b- 4d/	cze-	.
16F\	.	.	.	.	.	.
16D\	.	.	.	.	.	.
16F\JJ	.	.	.	.	.	.
16BB-\LL	8BB-/	8g 8e-/	.	8g 8e-/	-kaj	.
16F\	.	.	.	.	.	.
16D\	8ryy	16gLL 16e-/	.	16g 16e-/	pło-	.
16F\JJ	.	16aJJ 16c/	.	16a 16c/	-mień	.
=31	=31	=31	=31	=31	=31	=31
16BB-\LL	4BB-/	4b- 4d/	.	4b- 4d/	buch-	.
16F\	.	.	.	.	.	.
16D\	.	.	.	.	.	.
16F\JJ	.	.	.	.	.	.
8BB-/	4ryy	8fL 8d/	.	8f 8d/	-nie	.
!LO:TX:t=P:problem=mixed beam	!	!	!	!	!	!
16E-\LL	.	8gJ 8e-/	.	8r	.	.
16EE-\JJ	.	.	.	.	.	.
*v	*v	*	*	*	*	*
=32	=32	=32	=32	=32	=32
!LO:TX:t=P:problem=mixed beam	!	!	!	!	!
16FF/LL	(16enLL 16c#X/	.	(16enLL 16c#X/	w a-	.
16F\	16fJJ 16d/)	.	16fJJ 16d/)	.	.
16FF/	8dd 8f/	.	8dd 8f/	-tła-	.
16F\JJ	.	.	.	.	.
*rep	*	*	*	*	*
!LO:TX:t=P:problem=mixed beam	!	!	!	!	!
16FF/LL	8.ccn 8.e/	.	8.ccn 8.e/	-so-	.
16F\	.	.	.	.	.
16FF/	.	.	.	.	.
16F\JJ	16a 16c#/	.	16a 16cn/	-wem	.
*Xrep	*	*	*	*	*
=33	=33	=33	=33	=33	=33
!LO:TX:t=P:problem=mixed beam	!	!	!	!	!
16FF'\LL	4cc 4e-/	.	4cc 4e-/	ło-	.
(16F\	.	.	.	.	.
16G\	.	.	.	.	.
16A\JJ	.	.	.	.	.
8B-\)	8b- 8d/	.	8b- 8d/	-nie	.
!!LO:LB:g=original
=||	=||	=||	=||	=||	=||
*>D	*>D	*>D	*>D	*>D	*>D
!	!	!LO:DY:rj	!	!	!LO:DY:rj
8F 8FF/	8a 8f/	p	8a 8f/	I	p
=34	=34	=34	=34	=34	=34
*^	*	*	*	*	*
(16FF\LL	4FF/	8aL 8f'/	.	8a 8f/	bę-	.
16F\	.	.	.	.	.	.
16C\	.	(16g#XL 16en/	.	(16g#XLL 16en/	-dzie	.
16F\JJ	.	16aJJ 16f/)	.	16aJJ 16f/)	.	.
*rep	*rep	*	*	*	*	*
16FF\LL	4FF/	8aL 8f'/	.	8a 8f/	czu-	.
16F\	.	.	.	.	.	.
16C\	.	(16g#L 16e/	.	(16g#LL 16e/	-ły	.
16F\JJ)	.	16aJJ 16f/)	.	16aJJ 16f/)	.	.
*Xrep	*Xrep	*	*	*	*	*
*v	*v	*	*	*	*	*
=35	=35	=35	=35	=35	=35
(16FF\LL	(4cc 4a\	.	(4cc 4a\	wzrok	.
16F\	.	.	.	.	.
16C\	.	.	.	.	.
16F\JJ	.	.	.	.	.
*rep	*	*	*	*	*
16FF\LL	8a 8f/)	.	8a 8f/)	.	.
16F\	.	.	.	.	.
16C\	8a 8f/	.	8a 8f/	pro-	.
16F\JJ)	.	.	.	.	.
*Xrep	*	*	*	*	*
=36	=36	=36	=36	=36	=36
(16C\LL	8.b-L 8.g/	.	8.b- 8.g/	-mie-	.
16c\	.	.	.	.	.
16G\	.	.	.	.	.
16c\JJ	16aJk 16f#X/	.	16a 16f#X/	-nić	.
*rep	*	*	*	*	*
16C\LL	8b-L 8g/	.	8b- 8g/	na-	.
16c\	.	.	.	.	.
16G\	8ccJ 8en/	.	8cc 8en/	-mię-	.
16c\JJ)	.	.	.	.	.
*Xrep	*	*	*	*	*
!!LO:LB:g=original
=37	=37	=37	=37	=37	=37
*^	*	*	*	*	*
16F\LL	4F/	4a 4f/	.	4a 4f/	-tno-	.
16c\	.	.	.	.	.	.
16A\	.	.	.	.	.	.
16c\JJ	.	.	.	.	.	.
16C\LL	4ryy	8g 8en/	.	8g 8en/	-ścią	.
16G\	.	.	.	.	.	.
16En\	.	8r	.	8r	.	.
16C\JJ	.	.	.	.	.	.
=38	=38	=38	=38	=38	=38	=38
16FF'\LL	4FF/	8aL 8f'/	.	8a 8f/	Ciąg-	.
(16F\	.	.	.	.	.	.
16C\	.	(16g#XL 16en/	.	(16g#XLL 16en/	-nąć	.
16F\JJ)	.	16aJJ 16f/)	.	16aJJ 16f/)	.	.
*rep	*rep	*	*	*	*	*
16FF'\LL	4FF/	8aL 8f'/	.	8a 8f/	cię	.
(16F\	.	.	.	.	.	.
16C\	.	(16g#L 16e/	.	(16g#LL 16e/	do	.
16F\JJ)	.	16aJJ 16f/)	.	16aJJ 16f/)	.	.
*Xrep	*Xrep	*	*	*	*	*
=39	=39	=39	=39	=39	=39	=39
16FF'\LL	4FF/	4cc 4a/	.	4cc 4a\	sie-	.
(16F\	.	.	.	.	.	.
16C\	.	.	.	.	.	.
16F\JJ)	.	.	.	.	.	.
*v	*v	*	*	*	*	*
8FF/	8a 8f/	.	8a 8f/	-bie	.
8F 8FF/	8cc 8a 8f/	.	8cc 8a\	roz-	.
=40	=40	=40	=40	=40	=40
8B-L 8BB-\	8ddL 8b- 8f/	.	8dd 8b-\	-ko-	.
8dJ 8D\	8b-J 8f/	.	8b- 8d/	-szą	.
8.cL 8.C\	8.aL 8.f/	.	8.a 8.f/	i	.
16B-Jk 16C\	16gJk 16en/	.	16g 16en/	mi-	.
!!LO:PB:g=original
=41	=41	=41	=41	=41	=41
(4B- (4C\	4g 4en/	.	4g 4en/	-łoś-	.
16A 16F\))	8f 8d/	.	8f/	-cią	.
16E-X\LL	.	.	.	.	.
16D\	8r	.	8r	.	.
16C\JJ	.	.	.	.	.
=42	=42	=42	=42	=42	=42
!LO:TX:t=P:problem=mixed beam	!	!LO:DY:rj	!	!	!LO:DY:rj
16BB-/LL	4dd 4b-\	f	4dd 4b-\	Jak	f
16B-\	.	.	.	.	.
16BB-/	.	.	.	.	.
16B-\JJ	.	.	.	.	.
16F#X\LL	16ccLL 16a/	.	16cc 16a/	bia-	.
16G\	16b- 16g/	.	16b- 16g/	-ły	.
16D\	16a 16f/	.	16a 16f/	kwiat	.
16E-\JJ	16gJJ 16e-/	.	16g 16e-/	brzos-	.
=43	=43	=43	=43	=43	=43
!LO:TX:t=P:problem=mixed beam	!	!	!	!	!
(>16BB-/LL	4f 4d/	.	4f 4d/	-kwi-	.
16B-\	.	.	.	.	.
16BB-/	.	.	.	.	.
16B-\JJ)	.	.	.	.	.
8BB-/	8d 8B-/	.	8d 8B-/	-ni	.
8BB-/	8d 8B-/	.	8r	.	.
=44	=44	=44	=44	=44	=44
*^	*	*	*	*	*
16FF\LL	4FF/	8.e-L 8.c/	.	8.e- 8.c/	w cie-	.
16F\	.	.	.	.	.	.
16C\	.	.	.	.	.	.
16F\JJ	.	16fJk 16d/	.	16f 16d/	-płą	.
*rep	*rep	*	*	*	*	*
16FF\LL	4FF/	8gL 8e-/	.	8g 8e-/	noc	.
16F\	.	.	.	.	.	.
16C\	.	8aJ 8c/	.	8a 8c/	ie-	.
16F\JJ	.	.	.	.	.	.
*Xrep	*Xrep	*	*	*	*	*
!!LO:LB:g=original
=45	=45	=45	=45	=45	=45	=45
16BB-\LL	4BB-/	(>4b- 4d/	.	4b- 4d/	-sie-	.
16F\	.	.	.	.	.	.
16D\	.	.	.	.	.	.
16F\JJ	.	.	.	.	.	.
*rep	*rep	*	*	*	*	*
16BB-\LL	4BB-/	8f 8d/)	.	8f 8d/	-ni	.
16F\	.	.	.	.	.	.
16D\	.	8f 8d/	.	8f 8d/	Na	.
16F\JJ	.	.	.	.	.	.
*Xrep	*Xrep	*	*	*	*	*
*v	*v	*	*	*	*	*
=46	=46	=46	=46	=46	=46
!LO:TX:t=P:problem=mixed beam	!	!	!	!	!
16C/LL	4dd 4b-\	.	4dd 4b-\	gro-	.
16B-\	.	.	.	.	.
16BB-/	.	.	.	.	.
16B-\JJ	.	.	.	.	.
(16F#X\LL	(16ccLL 16a/	.	(16ccLL 16a/	-no	.
16G\JJ)	16b-JJ 16g/)	.	16b-JJ 16g/)	.	.
(16D\LL	(16aLL 16f#X/	.	(16aLL 16f#X/	wi-	.
16G\JJ)	16b-JJ 16g/)	.	16b-JJ 16g/)	.	.
=47	=47	=47	=47	=47	=47
*	*^	*	*	*	*
(4E-\	(>4g 4e-/	4.ryy	.	4g 4e-/	-szą-	.
8C/)	8cc 8e-/)	.	.	8cc 8e-/	-cych	.
16C\LL	16ee-/LL	8g\	.	16ee-LL 16c/	o-	.
16E-\JJ	16cc/JJ	.	.	16ccJJ 16e-/	.	.
*	*v	*v	*	*	*	*
=48	=48	=48	=48	=48	=48
!LO:TX:t=P:problem=mixed beam	!	!	!	!	!
16FF/LL	8b-L 8d/	.	8b- 8d/	-wo-	.
16F\	.	.	.	.	.
16FF/	8fJ 8d/	.	8f 8d/	-ców	.
16F\JJ	.	.	.	.	.
*rep	*	*	*	*	*
!LO:TX:t=P:problem=mixed beam	!	!	!	!	!
16FF/LL	8.gL 8.e-/	.	8.g 8.e-/	się	.
16F\	.	.	.	.	.
16FF/	.	.	.	.	.
16F\JJ	16aJk 16c/	.	16a 16c/	za-	.
*Xrep	*	*	*	*	*
!!LO:LB:g=original
=	=	=	=	=	=
16FF'\LL	(>4cc 4e-/	.	4cc 4e-/	-mie-	.
(16F\	.	.	.	.	.
16G\	.	.	.	.	.
16A\JJ	.	.	.	.	.
8B-\)	8b- 8d/)	.	8b- 8d/	-ni.	.
=49:|!	=49:|!	=49:|!	=49:|!	=49:|!	=49:|!
*>E	*>E	*>E	*>E	*>E	*>E
*	*^	*	*	*	*
8B-\	(16bb-/LL	8dd\	.	8r	.	.
.	16ff/JJ)	.	.	.	.	.
=50	=50	=50	=50	=50	=50	=50
16e-\LL	(16gg/LL	8ee-\	.	2r	.	.
16c\JJ	16ccc/JJ)	.	.	.	.	.
8f\L	(16ff/LL	8dd\	.	.	.	.
.	16bb-/JJ)	.	.	.	.	.
8F\J	(16ff/LL	8ee- 8cc\	.	.	.	.
.	16aa/JJ)	.	.	.	.	.
!LO:TX:t=P:problem=mixed beam	!	!	!	!	!	!
!LO:N:vis=8	!	!	!	!	!	!
16B-\LL	(16bb-/LL	16dd\LL	.	.	.	.
!LO:N:vis=8	!	!	!	!	!	!
16BB-/JJ	16ddd/JJ)	16ff\JJ	.	.	.	.
=51	=51	=51	=51	=51	=51	=51
8B-\	(16bb-/LL	8dd\	.	2r	.	.
.	16ff/JJ)	.	.	.	.	.
16e-\LL	(16gg/LL	8ee-\	.	.	.	.
16c\JJ	16ccc/JJ)	.	.	.	.	.
8f\L	(16ff/LL	8dd\	.	.	.	.
.	16bb-/JJ)	.	.	.	.	.
8F\J	(16ff/LL	8ee- 8cc\	.	.	.	.
.	16aa/JJ)	.	.	.	.	.
*	*v	*v	*	*	*	*
!!LO:LB:g=original
=52	=52	=52	=52	=52	=52
4B-\	4bb- 4dd\	.	2r	.	.
4r	4r	.	.	.	.
==	==	==	==	==	==
*-	*-	*-	*-	*-	*-
!!!system-decoration: s1{(s2,s3)}
!!!RDF**kern: > = above
!!!RDF**kern: < = below
!!!AIN: 1 empty 2 forte
!!!ENC: Marta Lawrence
!!!END: 2021-05-07
!!!ENC: Tomasz Grochalski
!!!END: 2021-04-25
